svgs/light/mug-saucer.svg

<svg xmlns="http://www.w3.org/2000/svg" viewBox="0 0 640 512"><!-- Font Awesome Pro 6.0.0-alpha2 by @fontawesome - https://fontawesome.com License - https://fontawesome.com/license (Commercial License) --><path d="M528 32H128C110.328 32 96 46.326 96 64V288C96 341.02 138.98 384 192 384H384C437.02 384 480 341.02 480 288V256H528C589.75 256 640 205.75 640 144S589.75 32 528 32ZM448 288C448 323.289 419.291 352 384 352H192C156.711 352 128 323.289 128 288V64H448V288ZM528 224H480V64H528C572.125 64 608 99.875 608 144S572.125 224 528 224ZM560 416C551.156 416 544 423.156 544 432C544 440.812 536.812 448 528 448H48C39.188 448 32 440.812 32 432C32 423.156 24.844 416 16 416S0 423.156 0 432C0 458.469 21.531 480 48 480H528C554.469 480 576 458.469 576 432C576 423.156 568.844 416 560 416Z"/></svg>

<svg xmlns="http://www.w3.org/2000/svg" viewBox="0 0 640 512"><!--! Font Awesome Pro 6.0.0-alpha3 by @fontawesome - https://fontawesome.com License - https://fontawesome.com/license (Commercial License) --><path d="M528 32H128C110.3 32 96 46.33 96 64l.0086 224c0 53.02 42.98 96 96 96h192C437 384 480 341 480 288V256h48C589.8 256 640 205.8 640 144S589.8 32 528 32zM448 288c0 35.29-28.71 64-64 64H192c-35.29 0-64-28.71-64-64V64h320V288zM528 224H480V64h48C572.1 64 608 99.88 608 144S572.1 224 528 224zM560 416c-8.844 0-16 7.156-16 16c0 8.812-7.188 16-16 16h-480C39.19 448 32 440.8 32 432C32 423.2 24.84 416 16 416S0 423.2 0 432C0 458.5 21.53 480 48 480h480c26.47 0 48-21.53 48-48C576 423.2 568.8 416 560 416z"/></svg>
